icons/python-misc.svg

<svg xmlns="http://www.w3.org/2000/svg" viewBox="0 0 32 32">
  <path d="M15,2H6A2.00587,2.00587,0,0,0,4,4V26a2.00591,2.00591,0,0,0,2,2H22a2,2,0,0,0,2-2V11Zm3,22H6V22H18Zm0-4H6V18H18Zm0-4H6V14H18Zm-4-4V4l8,8Z" style="fill: #757575"/>
  <g>
    <path d="M30.71429,16H28v5H19v7.71429A1.28571,1.28571,0,0,0,20.28571,30h6.42858A1.28571,1.28571,0,0,0,28,28.71429V26H22V25h8.71429A1.28571,1.28571,0,0,0,32,23.71429V17.28571A1.28571,1.28571,0,0,0,30.71429,16ZM24,28h3v1H24Z" style="fill: #fbc02d;isolation: isolate"/>
    <path d="M25.71429,12H19.28571A1.28571,1.28571,0,0,0,18,13.28571V16h6v1H15.28571A1.28571,1.28571,0,0,0,14,18.28571v6.42858A1.28571,1.28571,0,0,0,15.28571,26H18V20h9V13.28571A1.28571,1.28571,0,0,0,25.71429,12ZM22,14H19V13h3Z" style="fill: #0288d1;isolation: isolate"/>
  </g>
</svg>

<svg xmlns="http://www.w3.org/2000/svg" viewBox="0 0 32 32"><path fill="#757575" d="M15 2H6a2.006 2.006 0 0 0-2 2v22a2.006 2.006 0 0 0 2 2h16a2 2 0 0 0 2-2V11Zm3 22H6v-2h12Zm0-4H6v-2h12Zm0-4H6v-2h12Zm-4-4V4l8 8Z"/><path fill="#fbc02d" d="M30.714 16H28v5h-9v7.714A1.286 1.286 0 0 0 20.286 30h6.428A1.286 1.286 0 0 0 28 28.714V26h-6v-1h8.714A1.286 1.286 0 0 0 32 23.714v-6.428A1.286 1.286 0 0 0 30.714 16ZM24 28h3v1h-3Z" style="isolation:isolate"/><path fill="#0288d1" d="M25.714 12h-6.428A1.286 1.286 0 0 0 18 13.286V16h6v1h-8.714A1.286 1.286 0 0 0 14 18.286v6.428A1.286 1.286 0 0 0 15.286 26H18v-6h9v-6.714A1.286 1.286 0 0 0 25.714 12ZM22 14h-3v-1h3Z" style="isolation:isolate"/></svg>
